markup/src/img/googlePlay.svg

<svg width="167" height="50" viewBox="0 0 167 50" fill="none" xmlns="http://www.w3.org/2000/svg">
<rect width="167" height="50" rx="5" fill="#201D24"/>
<path d="M113.457 23.8763V27.098H111.458V29.2108H113.457V36.3897C113.457 38.841 114.554 39.8215 117.315 39.8215C117.8 39.8215 118.263 39.7632 118.667 39.6931V37.6037C118.32 37.6387 118.101 37.662 117.72 37.662C116.484 37.662 115.941 37.0784 115.941 35.7477V29.2108H118.667V27.098H115.941V23.8763H113.457Z" fill="#EFEFEF"/>
<path d="M125.7 39.9966C129.374 39.9966 131.626 37.5103 131.626 33.3897C131.626 29.2925 129.362 26.7945 125.7 26.7945C122.027 26.7945 119.762 29.2925 119.762 33.3897C119.762 37.5103 122.015 39.9966 125.7 39.9966ZM125.7 37.7671C123.54 37.7671 122.327 36.1679 122.327 33.3897C122.327 30.6349 123.54 29.024 125.7 29.024C127.849 29.024 129.073 30.6349 129.073 33.3897C129.073 36.1562 127.849 37.7671 125.7 37.7671Z" fill="#EFEFEF"/>
<path d="M133.554 39.7515H136.037V32.2458C136.037 30.4598 137.366 29.2575 139.249 29.2575C139.688 29.2575 140.427 29.3392 140.635 29.4092V26.9346C140.369 26.8645 139.896 26.8295 139.526 26.8295C137.886 26.8295 136.488 27.74 136.13 28.989H135.945V27.0396H133.554V39.7515Z" fill="#EFEFEF"/>
<path d="M146.802 28.9307C148.639 28.9307 149.84 30.2264 149.898 32.2224H143.544C143.683 30.238 144.965 28.9307 146.802 28.9307ZM149.886 36.3196C149.424 37.3118 148.396 37.8605 146.894 37.8605C144.907 37.8605 143.625 36.448 143.544 34.2185V34.0784H152.428V33.203C152.428 29.2108 150.314 26.7945 146.813 26.7945C143.267 26.7945 141.014 29.3742 141.014 33.4364C141.014 37.4986 143.221 39.9966 146.825 39.9966C149.701 39.9966 151.711 38.5959 152.277 36.3196H149.886Z" fill="#EFEFEF"/>
<path d="M97.1695 35.0572C97.361 38.1787 99.9353 40.175 103.767 40.175C107.862 40.175 110.424 38.0819 110.424 34.7426C110.424 32.1172 108.963 30.6654 105.419 29.8306L103.515 29.3587C101.264 28.8264 100.354 28.1126 100.354 26.8664C100.354 25.2936 101.767 24.2652 103.886 24.2652C105.898 24.2652 107.287 25.2694 107.538 26.8785H110.148C109.993 23.9385 107.431 21.8696 103.922 21.8696C100.151 21.8696 97.6364 23.9385 97.6364 27.0479C97.6364 29.6128 99.0612 31.1372 102.186 31.8752L104.413 32.4197C106.7 32.9641 107.706 33.7626 107.706 35.0935C107.706 36.6421 106.125 37.7673 103.97 37.7673C101.659 37.7673 100.055 36.7147 99.8275 35.0572H97.1695Z" fill="#EFEFEF"/>
<path d="M71.4413 26.8295C69.7316 26.8295 68.2529 27.6933 67.4905 29.1408H67.3057V27.0396H64.9144V43.9771H67.3981V37.8255H67.5945C68.2529 39.1679 69.6738 39.9616 71.4644 39.9616C74.6411 39.9616 76.6627 37.4286 76.6627 33.3897C76.6627 29.3509 74.6411 26.8295 71.4413 26.8295ZM70.7366 37.7087C68.6573 37.7087 67.3519 36.0512 67.3519 33.4014C67.3519 30.74 68.6573 29.0824 70.7481 29.0824C72.8506 29.0824 74.1098 30.7049 74.1098 33.3897C74.1098 36.0862 72.8506 37.7087 70.7366 37.7087Z" fill="#EFEFEF"/>
<path d="M85.3535 26.8295C83.6438 26.8295 82.1651 27.6933 81.4027 29.1408H81.2179V27.0396H78.8266V43.9771H81.3103V37.8255H81.5067C82.1651 39.1679 83.586 39.9616 85.3766 39.9616C88.5534 39.9616 90.5749 37.4286 90.5749 33.3897C90.5749 29.3509 88.5534 26.8295 85.3535 26.8295ZM84.6488 37.7087C82.5695 37.7087 81.2641 36.0512 81.2641 33.4014C81.2641 30.74 82.5695 29.0824 84.6604 29.0824C86.7628 29.0824 88.022 30.7049 88.022 33.3897C88.022 36.0862 86.7628 37.7087 84.6488 37.7087Z" fill="#EFEFEF"/>
<path d="M60.4583 39.7515H63.3079L57.0699 22.2931H54.1843L47.9463 39.7515H50.7001L52.2926 35.1177H58.8778L60.4583 39.7515ZM55.4894 25.4629H55.693L58.1954 32.8431H52.975L55.4894 25.4629Z" fill="#EFEFEF"/>
<path d="M49.6143 9.12472V17.5468H52.6235C55.1072 17.5468 56.5454 16.0001 56.5454 13.3095C56.5454 10.6597 55.0956 9.12472 52.6235 9.12472H49.6143ZM50.9081 10.3154H52.4791C54.2061 10.3154 55.2285 11.4243 55.2285 13.327C55.2285 15.2589 54.2235 16.3561 52.4791 16.3561H50.9081V10.3154Z" fill="#EFEFEF"/>
<path d="M60.9502 17.6693C62.7869 17.6693 63.9132 16.4262 63.9132 14.3659C63.9132 12.3173 62.7811 11.0683 60.9502 11.0683C59.1134 11.0683 57.9813 12.3173 57.9813 14.3659C57.9813 16.4262 59.1076 17.6693 60.9502 17.6693ZM60.9502 16.5546C59.8701 16.5546 59.2636 15.755 59.2636 14.3659C59.2636 12.9885 59.8701 12.183 60.9502 12.183C62.0245 12.183 62.6367 12.9885 62.6367 14.3659C62.6367 15.7491 62.0245 16.5546 60.9502 16.5546Z" fill="#EFEFEF"/>
<path d="M73.5048 11.1908H72.263L71.1424 16.041H71.0442L69.7504 11.1908H68.5606L67.2667 16.041H67.1743L66.048 11.1908H64.7889L66.5216 17.5468H67.7981L69.0919 12.8659H69.1901L70.4897 17.5468H71.7778L73.5048 11.1908Z" fill="#EFEFEF"/>
<path d="M74.9349 17.5468H76.1767V13.8289C76.1767 12.8367 76.7601 12.2181 77.6785 12.2181C78.5969 12.2181 79.0358 12.7258 79.0358 13.7472V17.5468H80.2777V13.432C80.2777 11.9204 79.5037 11.0683 78.1001 11.0683C77.1529 11.0683 76.5291 11.4943 76.2229 12.2005H76.1305V11.1908H74.9349V17.5468Z" fill="#EFEFEF"/>
<path d="M82.2334 17.5468H83.4752V8.71033H82.2334V17.5468Z" fill="#EFEFEF"/>
<path d="M88.1457 17.6693C89.9824 17.6693 91.1088 16.4262 91.1088 14.3659C91.1088 12.3173 89.9767 11.0683 88.1457 11.0683C86.3089 11.0683 85.1768 12.3173 85.1768 14.3659C85.1768 16.4262 86.3032 17.6693 88.1457 17.6693ZM88.1457 16.5546C87.0656 16.5546 86.4591 15.755 86.4591 14.3659C86.4591 12.9885 87.0656 12.183 88.1457 12.183C89.22 12.183 89.8323 12.9885 89.8323 14.3659C89.8323 15.7491 89.22 16.5546 88.1457 16.5546Z" fill="#EFEFEF"/>
<path d="M94.8088 16.5954C94.133 16.5954 93.6421 16.2627 93.6421 15.6908C93.6421 15.1305 94.0349 14.8328 94.9012 14.7744L96.4377 14.6752V15.2063C96.4377 15.9943 95.7445 16.5954 94.8088 16.5954ZM94.4912 17.6518C95.3171 17.6518 96.0045 17.29 96.3799 16.6538H96.4781V17.5468H97.6737V13.2044C97.6737 11.862 96.7842 11.0683 95.2074 11.0683C93.7807 11.0683 92.7641 11.7686 92.6371 12.8601H93.8385C93.9771 12.4107 94.4565 12.1539 95.1496 12.1539C95.9987 12.1539 96.4377 12.5332 96.4377 13.2044V13.7531L94.7337 13.8523C93.2378 13.9457 92.3945 14.6052 92.3945 15.7491C92.3945 16.9106 93.2782 17.6518 94.4912 17.6518Z" fill="#EFEFEF"/>
<path d="M101.888 17.6518C102.754 17.6518 103.488 17.2374 103.863 16.5429H103.961V17.5468H105.151V8.71033H103.909V12.2005H103.817C103.476 11.5002 102.748 11.0858 101.888 11.0858C100.299 11.0858 99.2771 12.3581 99.2771 14.3659C99.2771 16.3795 100.288 17.6518 101.888 17.6518ZM102.24 12.2122C103.28 12.2122 103.933 13.0468 103.933 14.3717C103.933 15.7024 103.286 16.5254 102.24 16.5254C101.189 16.5254 100.559 15.7141 100.559 14.3659C100.559 13.0293 101.195 12.2122 102.24 12.2122Z" fill="#EFEFEF"/>
<path d="M113.204 17.6693C115.041 17.6693 116.167 16.4262 116.167 14.3659C116.167 12.3173 115.035 11.0683 113.204 11.0683C111.367 11.0683 110.235 12.3173 110.235 14.3659C110.235 16.4262 111.362 17.6693 113.204 17.6693ZM113.204 16.5546C112.124 16.5546 111.518 15.755 111.518 14.3659C111.518 12.9885 112.124 12.183 113.204 12.183C114.278 12.183 114.891 12.9885 114.891 14.3659C114.891 15.7491 114.278 16.5546 113.204 16.5546Z" fill="#EFEFEF"/>
<path d="M117.811 17.5468H119.053V13.8289C119.053 12.8367 119.636 12.2181 120.555 12.2181C121.473 12.2181 121.912 12.7258 121.912 13.7472V17.5468H123.154V13.432C123.154 11.9204 122.38 11.0683 120.976 11.0683C120.029 11.0683 119.405 11.4943 119.099 12.2005H119.007V11.1908H117.811V17.5468Z" fill="#EFEFEF"/>
<path d="M128.873 9.60915V11.22H127.874V12.2764H128.873V15.8659C128.873 17.0915 129.422 17.5818 130.802 17.5818C131.045 17.5818 131.276 17.5526 131.478 17.5176V16.4729C131.305 16.4904 131.195 16.502 131.004 16.502C130.386 16.502 130.115 16.2102 130.115 15.5449V12.2764H131.478V11.22H130.115V9.60915H128.873Z" fill="#EFEFEF"/>
<path d="M133.145 17.5468H134.387V13.8348C134.387 12.8717 134.953 12.2239 135.969 12.2239C136.847 12.2239 137.315 12.7375 137.315 13.7531V17.5468H138.557V13.4437C138.557 11.9321 137.731 11.0741 136.391 11.0741C135.444 11.0741 134.78 11.5002 134.474 12.2122H134.375V8.71033H133.145V17.5468Z" fill="#EFEFEF"/>
<path d="M143.037 12.1363C143.955 12.1363 144.556 12.7842 144.585 13.7822H141.408C141.477 12.79 142.119 12.1363 143.037 12.1363ZM144.579 15.8308C144.348 16.3269 143.834 16.6013 143.083 16.6013C142.09 16.6013 141.449 15.895 141.408 14.7803V14.7102H145.85V14.2725C145.85 12.2764 144.793 11.0683 143.043 11.0683C141.27 11.0683 140.143 12.3581 140.143 14.3892C140.143 16.4203 141.246 17.6693 143.048 17.6693C144.487 17.6693 145.492 16.969 145.775 15.8308H144.579Z" fill="#EFEFEF"/>
<path d="M34.4699 25.4231C34.5 23.0592 35.7564 20.8224 37.7494 19.5842C36.4921 17.7697 34.3861 16.6193 32.1951 16.55C29.8581 16.3021 27.5926 17.963 26.4017 17.963C25.1878 17.963 23.3543 16.5746 21.3799 16.6156C18.8063 16.6997 16.4071 18.1782 15.155 20.4517C12.4636 25.1604 14.4712 32.0807 17.0494 35.8868C18.3393 37.7506 19.8469 39.8325 21.8195 39.7587C23.7498 39.6778 24.4708 38.5149 26.8008 38.5149C29.1093 38.5149 29.7857 39.7587 31.7983 39.7117C33.8696 39.6777 35.1747 37.8397 36.4194 35.9582C37.3462 34.6302 38.0594 33.1625 38.5325 31.6094C36.0983 30.5691 34.4727 28.0937 34.4699 25.4231Z" fill="#EFEFEF"/>
<path d="M30.6683 14.0469C31.7977 12.6769 32.3541 10.916 32.2194 9.13818C30.4939 9.32131 28.9001 10.1546 27.7555 11.472C26.6362 12.7592 26.0537 14.4891 26.1638 16.199C27.8899 16.2169 29.5867 15.4062 30.6683 14.0469Z" fill="#EFEFEF"/>
</svg>

<svg width="167" height="50" fill="none" xmlns="http://www.w3.org/2000/svg"><rect width="167" height="50" rx="5" fill="#201D24"/><path d="M113.457 23.876v3.222h-1.999v2.113h1.999v7.179c0 2.451 1.097 3.431 3.858 3.431a7.94 7.94 0 0 0 1.352-.128v-2.09c-.347.036-.566.059-.947.059-1.236 0-1.779-.584-1.779-1.914V29.21h2.726v-2.113h-2.726v-3.222h-2.484zM125.7 39.997c3.674 0 5.926-2.487 5.926-6.607 0-4.098-2.264-6.596-5.926-6.596-3.673 0-5.938 2.498-5.938 6.596 0 4.12 2.253 6.607 5.938 6.607zm0-2.23c-2.16 0-3.373-1.6-3.373-4.377 0-2.755 1.213-4.366 3.373-4.366 2.149 0 3.373 1.61 3.373 4.366 0 2.766-1.224 4.377-3.373 4.377zm7.854 1.985h2.483v-7.506c0-1.786 1.329-2.989 3.212-2.989.439 0 1.178.082 1.386.152v-2.474c-.266-.07-.739-.105-1.109-.105-1.64 0-3.038.91-3.396 2.159h-.185v-1.95h-2.391v12.712zm13.248-10.822c1.837 0 3.038 1.296 3.096 3.292h-6.354c.139-1.984 1.421-3.291 3.258-3.291zm3.084 7.39c-.462.992-1.49 1.54-2.992 1.54-1.987 0-3.269-1.412-3.35-3.642v-.14h8.884v-.875c0-3.992-2.114-6.409-5.615-6.409-3.546 0-5.799 2.58-5.799 6.642 0 4.063 2.207 6.56 5.811 6.56 2.876 0 4.886-1.4 5.452-3.676h-2.391zM97.17 35.057c.191 3.122 2.765 5.118 6.597 5.118 4.095 0 6.657-2.093 6.657-5.432 0-2.626-1.461-4.078-5.005-4.912l-1.904-.472c-2.251-.533-3.161-1.246-3.161-2.493 0-1.572 1.413-2.6 3.532-2.6 2.012 0 3.401 1.003 3.652 2.613h2.61c-.155-2.94-2.717-5.01-6.226-5.01-3.771 0-6.286 2.07-6.286 5.179 0 2.565 1.425 4.09 4.55 4.827l2.227.545c2.287.544 3.293 1.343 3.293 2.673 0 1.55-1.581 2.674-3.736 2.674-2.311 0-3.915-1.052-4.142-2.71h-2.659zM71.441 26.83c-1.71 0-3.188.863-3.95 2.31h-.185v-2.1h-2.392v16.937h2.484v-6.151h.197c.658 1.342 2.079 2.136 3.87 2.136 3.176 0 5.198-2.533 5.198-6.572 0-4.04-2.022-6.56-5.222-6.56zm-.704 10.879c-2.08 0-3.385-1.658-3.385-4.308 0-2.661 1.305-4.319 3.396-4.319 2.103 0 3.362 1.623 3.362 4.308 0 2.696-1.26 4.319-3.373 4.319zM85.353 26.83c-1.71 0-3.188.863-3.95 2.31h-.185v-2.1h-2.391v16.937h2.483v-6.151h.197c.658 1.342 2.079 2.136 3.87 2.136 3.176 0 5.198-2.533 5.198-6.572 0-4.04-2.022-6.56-5.222-6.56zm-.704 10.879c-2.08 0-3.385-1.658-3.385-4.308 0-2.661 1.306-4.319 3.396-4.319 2.103 0 3.362 1.623 3.362 4.308 0 2.696-1.26 4.319-3.373 4.319zm-24.191 2.043h2.85L57.07 22.293h-2.886l-6.238 17.459H50.7l1.593-4.634h6.585l1.58 4.633zm-4.969-14.29h.204l2.502 7.381h-5.22l2.514-7.38zM49.614 9.125v8.422h3.01c2.483 0 3.921-1.547 3.921-4.238 0-2.65-1.45-4.184-3.922-4.184h-3.009zm1.294 1.19h1.571c1.727 0 2.75 1.11 2.75 3.012 0 1.932-1.005 3.03-2.75 3.03h-1.57v-6.042zM60.95 17.67c1.837 0 2.963-1.244 2.963-3.304 0-2.049-1.132-3.298-2.963-3.298-1.837 0-2.969 1.25-2.969 3.298 0 2.06 1.127 3.303 2.97 3.303zm0-1.115c-1.08 0-1.686-.8-1.686-2.19 0-1.377.606-2.182 1.686-2.182 1.075 0 1.687.806 1.687 2.183 0 1.383-.612 2.189-1.687 2.189zm12.555-5.365h-1.242l-1.12 4.851h-.099l-1.294-4.85h-1.19l-1.293 4.85h-.093l-1.126-4.85h-1.26l1.734 6.356h1.276l1.294-4.681h.098l1.3 4.68h1.288l1.727-6.355zm1.43 6.357h1.242v-3.718c0-.992.583-1.61 1.501-1.61.919 0 1.358.507 1.358 1.528v3.8h1.242v-4.115c0-1.512-.774-2.364-2.178-2.364-.947 0-1.57.426-1.877 1.133h-.093v-1.01h-1.195v6.356zm7.298 0h1.242V8.71h-1.242v8.837zm5.913.123c1.836 0 2.963-1.244 2.963-3.304 0-2.049-1.132-3.298-2.963-3.298-1.837 0-2.97 1.25-2.97 3.298 0 2.06 1.127 3.303 2.97 3.303zm0-1.115c-1.08 0-1.687-.8-1.687-2.19 0-1.377.607-2.182 1.687-2.182 1.074 0 1.686.806 1.686 2.183 0 1.383-.612 2.189-1.686 2.189zm6.663.04c-.676 0-1.167-.332-1.167-.904 0-.56.393-.858 1.26-.917l1.536-.099v.531c0 .788-.694 1.39-1.63 1.39zm-.318 1.057c.826 0 1.513-.362 1.889-.998h.098v.893h1.196v-4.343c0-1.342-.89-2.136-2.467-2.136-1.426 0-2.443.7-2.57 1.792h1.201c.14-.45.619-.706 1.312-.706.849 0 1.288.38 1.288 1.05v.55l-1.704.098c-1.496.094-2.34.753-2.34 1.897 0 1.162.884 1.903 2.097 1.903zm7.397 0c.866 0 1.6-.415 1.975-1.11h.098v1.005h1.19V8.71h-1.242v3.49h-.092c-.341-.7-1.069-1.114-1.929-1.114-1.589 0-2.61 1.272-2.61 3.28 0 2.014 1.01 3.286 2.61 3.286zm.352-5.44c1.04 0 1.693.835 1.693 2.16 0 1.33-.647 2.153-1.693 2.153-1.051 0-1.681-.81-1.681-2.16 0-1.336.636-2.153 1.681-2.153zm10.964 5.458c1.837 0 2.963-1.244 2.963-3.304 0-2.049-1.132-3.298-2.963-3.298-1.837 0-2.969 1.25-2.969 3.298 0 2.06 1.127 3.303 2.969 3.303zm0-1.115c-1.08 0-1.686-.8-1.686-2.19 0-1.377.606-2.182 1.686-2.182 1.074 0 1.687.806 1.687 2.183 0 1.383-.613 2.189-1.687 2.189zm4.607.992h1.242v-3.718c0-.992.583-1.61 1.502-1.61.918 0 1.357.507 1.357 1.528v3.8h1.242v-4.115c0-1.512-.774-2.364-2.178-2.364-.947 0-1.571.426-1.877 1.133h-.092v-1.01h-1.196v6.356zm11.062-7.937v1.61h-.999v1.056h.999v3.59c0 1.226.549 1.716 1.929 1.716.243 0 .474-.03.676-.064v-1.045c-.173.017-.283.029-.474.029-.618 0-.889-.292-.889-.957v-3.269h1.363V11.22h-1.363V9.61h-1.242zm4.272 7.937h1.242v-3.712c0-.963.566-1.611 1.582-1.611.878 0 1.346.514 1.346 1.53v3.793h1.242v-4.103c0-1.512-.826-2.37-2.166-2.37-.947 0-1.611.426-1.917 1.138h-.099V8.71h-1.23v8.837zm9.892-5.411c.918 0 1.519.648 1.548 1.646h-3.177c.069-.992.711-1.646 1.629-1.646zm1.542 3.695c-.231.496-.745.77-1.496.77-.993 0-1.634-.706-1.675-1.82v-.07h4.442v-.438c0-1.997-1.057-3.205-2.807-3.205-1.773 0-2.9 1.29-2.9 3.321s1.103 3.28 2.905 3.28c1.439 0 2.444-.7 2.727-1.838h-1.196zM34.47 25.423c.03-2.364 1.286-4.6 3.28-5.839-1.258-1.814-3.364-2.965-5.555-3.034-2.337-.248-4.602 1.413-5.793 1.413-1.214 0-3.048-1.388-5.022-1.347-2.574.084-4.973 1.562-6.225 3.836-2.691 4.708-.684 11.629 1.894 15.435 1.29 1.864 2.798 3.946 4.77 3.872 1.93-.081 2.652-1.244 4.982-1.244 2.308 0 2.985 1.244 4.997 1.197 2.072-.034 3.377-1.872 4.621-3.754a15.481 15.481 0 0 0 2.114-4.349c-2.435-1.04-4.06-3.515-4.063-6.186zm-3.802-11.376a6.9 6.9 0 0 0 1.551-4.909 6.876 6.876 0 0 0-4.463 2.334 6.623 6.623 0 0 0-1.592 4.727 5.749 5.749 0 0 0 4.504-2.152z" fill="#EFEFEF"/></svg>
